; generated by Slic3r 1.3.0 on 2024-11-26 at 17:56:12

; external perimeters extrusion width = 0.55mm (7.28mm^3/s)
; perimeters extrusion width = 0.70mm (11.44mm^3/s)
; infill extrusion width = 0.63mm (13.45mm^3/s)
; solid infill extrusion width = 0.70mm (3.81mm^3/s)
; top infill extrusion width = 0.70mm (2.86mm^3/s)

M107
M104 S200 ; set temperature
G28 ; home all axes
G1 Z5 F5000 ; lift nozzle

; Filament gcode

M109 S200 ; set temperature and wait for it to be reached
G21 ; set units to millimeters
G90 ; use absolute coordinates
M82 ; use absolute distances for extrusion
G92 E0
G1 Z0.350 F7800.000
G1 E-2.00000 F2400.00000
G92 E0
G1 X26.729 Y49.312 F7800.000
G1 E2.00000 F2400.00000
G1 F1800
G1 X30.000 Y48.439 E2.09404
G1 X170.000 Y48.439 E5.98293
G1 X172.247 Y48.836 E6.04633
G1 X174.223 Y49.979 E6.10972
G1 X175.688 Y51.729 E6.17312
G1 X176.561 Y55.000 E6.26716
G1 X176.561 Y145.000 E8.76716
G1 X176.164 Y147.247 E8.83055
G1 X175.021 Y149.223 E8.89395
G1 X173.271 Y150.688 E8.95735
G1 X170.000 Y151.561 E9.05139
G1 X30.000 Y151.561 E12.94028
G1 X27.753 Y151.164 E13.00367
G1 X25.777 Y150.021 E13.06707
G1 X24.312 Y148.271 E13.13047
G1 X23.439 Y145.000 E13.22451
G1 X23.439 Y55.000 E15.72451
G1 X23.836 Y52.753 E15.78790
G1 X24.979 Y50.777 E15.85130
G1 X26.672 Y49.361 E15.91261
G1 E13.91261 F2400.00000
G92 E0
G1 X40.110 Y133.835 F7800.000
G1 E2.00000 F2400.00000
G1 F1800
G1 X40.711 Y134.315 E2.02136
G1 X41.205 Y134.904 E2.04271
G1 X41.572 Y135.579 E2.06407
G1 X41.799 Y136.313 E2.08542
G1 X41.876 Y137.078 E2.10678
G1 X41.801 Y137.828 E2.12770
G1 X41.632 Y138.423 E2.14488
G1 X41.309 Y139.092 E2.16552
G1 X40.845 Y139.704 E2.18686
G1 X40.269 Y140.213 E2.20821
G1 X39.603 Y140.597 E2.22957
G1 X38.874 Y140.842 E2.25093
G1 X38.111 Y140.938 E2.27228
G1 X37.345 Y140.880 E2.29364
G1 X36.604 Y140.672 E2.31499
G1 X35.920 Y140.322 E2.33635
G1 X35.319 Y139.842 E2.35770
G1 X34.826 Y139.254 E2.37904
G1 X34.469 Y138.602 E2.39968
G1 X34.271 Y138.016 E2.41687
G1 X34.159 Y137.271 E2.43778
G1 X34.197 Y136.503 E2.45914
G1 X34.387 Y135.758 E2.48050
G1 X34.721 Y135.065 E2.50185
G1 X35.185 Y134.452 E2.52321
G1 X35.761 Y133.944 E2.54456
G1 X36.427 Y133.559 E2.56592
G1 X37.156 Y133.315 E2.58727
G1 X37.919 Y133.219 E2.60863
G1 X38.685 Y133.276 E2.62998
G1 X39.425 Y133.485 E2.65134
G1 X40.043 Y133.801 E2.67061
G1 X39.804 Y134.309 F7800.000
G1 F1800
G1 X40.317 Y134.718 E2.68885
G1 X40.739 Y135.221 E2.70709
G1 X41.053 Y135.798 E2.72532
G1 X41.246 Y136.425 E2.74356
G1 X41.312 Y137.078 E2.76180
G1 X41.247 Y137.723 E2.77978
G1 X41.106 Y138.223 E2.79423
G1 X40.828 Y138.798 E2.81196
G1 X40.432 Y139.321 E2.83019
G1 X39.939 Y139.755 E2.84842
G1 X39.371 Y140.084 E2.86666
G1 X38.749 Y140.293 E2.88490
G1 X38.097 Y140.374 E2.90314
G1 X37.442 Y140.325 E2.92137
G1 X36.810 Y140.147 E2.93961
G1 X36.226 Y139.848 E2.95785
G1 X35.713 Y139.439 E2.97608
G1 X35.291 Y138.936 E2.99431
G1 X34.985 Y138.376 E3.01205
G1 X34.819 Y137.883 E3.02649
G1 X34.722 Y137.243 E3.04447
G1 X34.755 Y136.587 E3.06271
G1 X34.917 Y135.951 E3.08095
G1 X35.202 Y135.359 E3.09918
G1 X35.598 Y134.836 E3.11742
G1 X36.090 Y134.402 E3.13566
G1 X36.659 Y134.073 E3.15390
G1 X37.281 Y133.864 E3.17213
G1 X37.933 Y133.783 E3.19037
G1 X38.587 Y133.832 E3.20861
G1 X39.219 Y134.009 E3.22684
G1 X39.737 Y134.275 E3.24300
G1 X39.521 Y134.746 F7800.000
G1 F1800
G1 X39.953 Y135.091 E3.25600
G1 X40.309 Y135.514 E3.26900
G1 X40.573 Y136.000 E3.28200
G1 X40.736 Y136.528 E3.29500
G1 X40.791 Y137.078 E3.30800
G1 X40.737 Y137.625 E3.32092
G1 X40.620 Y138.038 E3.33102
G1 X40.384 Y138.526 E3.34376
G1 X40.050 Y138.967 E3.35675
G1 X39.636 Y139.333 E3.36975
G1 X39.157 Y139.609 E3.38276
G1 X38.633 Y139.785 E3.39576
G1 X38.084 Y139.854 E3.40876
G1 X37.533 Y139.813 E3.42176
G1 X37.001 Y139.663 E3.43476
G1 X36.509 Y139.411 E3.44776
G1 X36.076 Y139.066 E3.46076
G1 X35.721 Y138.643 E3.47375
G1 X35.461 Y138.167 E3.48650
G1 X35.324 Y137.760 E3.49659
G1 X35.242 Y137.217 E3.50951
G1 X35.270 Y136.665 E3.52251
G1 X35.406 Y136.129 E3.53551
G1 X35.646 Y135.631 E3.54851
G1 X35.980 Y135.190 E3.56151
G1 X36.394 Y134.824 E3.57451
G1 X36.873 Y134.548 E3.58751
G1 X37.397 Y134.372 E3.60052
G1 X37.946 Y134.303 E3.61352
G1 X38.497 Y134.344 E3.62652
G1 X39.029 Y134.494 E3.63952
G1 X39.454 Y134.712 E3.65075
G1 X39.521 Y134.746 F7800.000
G1 E1.65075 F2400.00000
G92 E0
G1 X38.111 Y65.938 F7800.000
G1 E2.00000 F2400.00000
G1 F1800
G1 X37.344 Y65.880 E2.02136
G1 X36.604 Y65.672 E2.04271
G1 X35.921 Y65.322 E2.06405
G1 X35.339 Y64.859 E2.08469
G1 X34.929 Y64.396 E2.10187
G1 X34.537 Y63.754 E2.12279
G1 X34.274 Y63.031 E2.14415
G1 X34.159 Y62.271 E2.16550
G1 X34.197 Y61.503 E2.18686
G1 X34.387 Y60.758 E2.20821
G1 X34.721 Y60.065 E2.22957
G1 X35.185 Y59.452 E2.25093
G1 X35.761 Y58.944 E2.27228
G1 X36.427 Y58.559 E2.29364
G1 X37.156 Y58.315 E2.31499
G1 X37.919 Y58.219 E2.33635
G1 X38.685 Y58.276 E2.35770
G1 X39.425 Y58.485 E2.37906
G1 X40.110 Y58.835 E2.40042
G1 X40.711 Y59.315 E2.42177
G1 X41.205 Y59.904 E2.44313
G1 X41.572 Y60.579 E2.46448
G1 X41.799 Y61.313 E2.48584
G1 X41.876 Y62.078 E2.50719
G1 X41.799 Y62.843 E2.52855
G1 X41.572 Y63.578 E2.54991
G1 X41.205 Y64.253 E2.57126
G1 X40.711 Y64.842 E2.59262
G1 X40.110 Y65.322 E2.61397
G1 X39.441 Y65.664 E2.63485
G1 X38.857 Y65.844 E2.65181
G1 X38.186 Y65.929 E2.67061
G1 X38.097 Y65.374 F7800.000
G1 F1800
G1 X37.442 Y65.325 E2.68885
G1 X36.810 Y65.147 E2.70709
G1 X36.227 Y64.848 E2.72531
G1 X35.727 Y64.451 E2.74305
G1 X35.382 Y64.061 E2.75750
G1 X35.044 Y63.509 E2.77548
G1 X34.820 Y62.892 E2.79371
G1 X34.722 Y62.243 E2.81195
G1 X34.755 Y61.587 E2.83019
G1 X34.917 Y60.951 E2.84843
G1 X35.202 Y60.359 E2.86666
G1 X35.598 Y59.836 E2.88490
G1 X36.090 Y59.402 E2.90314
G1 X36.659 Y59.073 E2.92137
G1 X37.281 Y58.864 E2.93961
G1 X37.933 Y58.783 E2.95785
G1 X38.587 Y58.832 E2.97608
G1 X39.219 Y59.009 E2.99432
G1 X39.804 Y59.309 E3.01256
G1 X40.317 Y59.718 E3.03080
G1 X40.739 Y60.221 E3.04903
G1 X41.053 Y60.798 E3.06727
G1 X41.246 Y61.425 E3.08551
G1 X41.312 Y62.078 E3.10374
G1 X41.246 Y62.732 E3.12198
G1 X41.053 Y63.359 E3.14022
G1 X40.739 Y63.936 E3.15845
G1 X40.317 Y64.439 E3.17669
G1 X39.804 Y64.848 E3.19493
G1 X39.228 Y65.143 E3.21289
G1 X38.739 Y65.294 E3.22712
G1 X38.172 Y65.365 E3.24300
G1 X38.084 Y64.854 F7800.000
G1 F1800
G1 X37.533 Y64.813 E3.25600
G1 X37.001 Y64.663 E3.26900
G1 X36.509 Y64.411 E3.28200
G1 X36.085 Y64.073 E3.29474
G1 X35.800 Y63.752 E3.30483
G1 X35.513 Y63.283 E3.31775
G1 X35.324 Y62.764 E3.33075
G1 X35.242 Y62.217 E3.34376
G1 X35.270 Y61.665 E3.35676
G1 X35.406 Y61.129 E3.36976
G1 X35.646 Y60.631 E3.38276
G1 X35.980 Y60.190 E3.39576
G1 X36.394 Y59.824 E3.40876
G1 X36.873 Y59.548 E3.42176
G1 X37.397 Y59.372 E3.43476
G1 X37.946 Y59.303 E3.44776
G1 X38.497 Y59.344 E3.46076
G1 X39.029 Y59.494 E3.47376
G1 X39.521 Y59.746 E3.48676
G1 X39.953 Y60.091 E3.49976
G1 X40.309 Y60.514 E3.51276
G1 X40.573 Y61.000 E3.52576
G1 X40.736 Y61.528 E3.53876
G1 X40.791 Y62.078 E3.55176
G1 X40.736 Y62.629 E3.56476
G1 X40.573 Y63.157 E3.57776
G1 X40.309 Y63.642 E3.59076
G1 X39.953 Y64.066 E3.60376
G1 X39.521 Y64.411 E3.61676
G1 X39.032 Y64.661 E3.62968
G1 X38.629 Y64.786 E3.63960
G1 X38.159 Y64.845 E3.65075
G1 X38.084 Y64.854 F7800.000
G1 E1.65075 F2400.00000
G92 E0
G1 X158.159 Y62.271 F7800.000
G1 E2.00000 F2400.00000
G1 F1800
G1 X158.197 Y61.503 E2.02136
G1 X158.387 Y60.758 E2.04271
G1 X158.721 Y60.065 E2.06407
G1 X159.185 Y59.452 E2.08542
G1 X159.761 Y58.944 E2.10678
G1 X160.427 Y58.559 E2.12813
G1 X161.156 Y58.315 E2.14949
G1 X161.919 Y58.219 E2.17084
G1 X162.685 Y58.276 E2.19220
G1 X163.425 Y58.485 E2.21356
G1 X164.110 Y58.835 E2.23491
G1 X164.711 Y59.315 E2.25627
G1 X165.205 Y59.904 E2.27762
G1 X165.572 Y60.579 E2.29898
G1 X165.799 Y61.313 E2.32031
G1 X165.874 Y62.052 E2.34096
G1 X165.829 Y62.669 E2.35814
G1 X165.643 Y63.399 E2.37906
G1 X165.309 Y64.092 E2.40041
G1 X164.845 Y64.704 E2.42177
G1 X164.269 Y65.213 E2.44313
G1 X163.603 Y65.597 E2.46448
G1 X162.874 Y65.842 E2.48584
G1 X162.145 Y65.934 E2.50625
G1 X161.725 Y65.923 E2.51793
G1 X161.268 Y65.865 E2.53072
G1 X160.599 Y65.669 E2.55008
G1 X159.935 Y65.329 E2.57079
G1 X159.449 Y64.961 E2.58775
G1 X158.937 Y64.410 E2.60863
G1 X158.537 Y63.754 E2.62998
G1 X158.274 Y63.031 E2.65134
G1 X158.170 Y62.345 E2.67061
G1 X158.722 Y62.243 F7800.000
G1 F1800
G1 X158.755 Y61.587 E2.68885
G1 X158.917 Y60.951 E2.70709
G1 X159.202 Y60.359 E2.72532
G1 X159.598 Y59.836 E2.74356
G1 X160.090 Y59.402 E2.76180
G1 X160.659 Y59.073 E2.78003
G1 X161.281 Y58.864 E2.79827
G1 X161.933 Y58.783 E2.81651
G1 X162.587 Y58.832 E2.83474
G1 X163.219 Y59.009 E2.85298
G1 X163.804 Y59.309 E2.87122
G1 X164.317 Y59.718 E2.88946
G1 X164.739 Y60.221 E2.90769
G1 X165.053 Y60.798 E2.92593
G1 X165.246 Y61.425 E2.94415
G1 X165.311 Y62.060 E2.96189
G1 X165.273 Y62.579 E2.97634
G1 X165.113 Y63.206 E2.99432
G1 X164.828 Y63.798 E3.01256
G1 X164.432 Y64.321 E3.03079
G1 X163.939 Y64.755 E3.04903
G1 X163.371 Y65.084 E3.06727
G1 X162.749 Y65.293 E3.08550
G1 X162.117 Y65.372 E3.10319
G1 X161.768 Y65.363 E3.11289
G1 X161.383 Y65.314 E3.12366
G1 X160.807 Y65.146 E3.14033
G1 X160.235 Y64.852 E3.15818
G1 X159.827 Y64.543 E3.17242
G1 X159.387 Y64.069 E3.19038
G1 X159.044 Y63.509 E3.20861
G1 X158.820 Y62.892 E3.22685
G1 X158.733 Y62.317 E3.24300
G1 X159.242 Y62.217 F7800.000
G1 F1800
G1 X159.270 Y61.665 E3.25601
G1 X159.406 Y61.129 E3.26901
G1 X159.646 Y60.631 E3.28201
G1 X159.980 Y60.190 E3.29501
G1 X160.394 Y59.824 E3.30801
G1 X160.873 Y59.548 E3.32101
G1 X161.397 Y59.372 E3.33401
G1 X161.946 Y59.303 E3.34701
G1 X162.497 Y59.344 E3.36001
G1 X163.029 Y59.494 E3.37301
G1 X163.521 Y59.746 E3.38601
G1 X163.953 Y60.091 E3.39901
G1 X164.309 Y60.514 E3.41201
G1 X164.573 Y61.000 E3.42501
G1 X164.736 Y61.528 E3.43801
G1 X164.791 Y62.067 E3.45075
G1 X164.759 Y62.495 E3.46084
G1 X164.624 Y63.028 E3.47377
G1 X164.384 Y63.526 E3.48677
G1 X164.050 Y63.967 E3.49977
G1 X163.636 Y64.333 E3.51277
G1 X163.157 Y64.609 E3.52577
G1 X162.633 Y64.785 E3.53877
G1 X162.091 Y64.853 E3.55161
G1 X161.807 Y64.846 E3.55828
G1 X161.489 Y64.805 E3.56582
G1 X160.999 Y64.662 E3.57782
G1 X160.512 Y64.412 E3.59070
G1 X160.175 Y64.158 E3.60062
G1 X159.802 Y63.755 E3.61354
G1 X159.513 Y63.283 E3.62654
G1 X159.324 Y62.764 E3.63954
G1 X159.253 Y62.291 E3.65078
G1 X159.242 Y62.217 F7800.000
G1 E1.65078 F2400.00000
G92 E0
G1 X161.919 Y133.219 F7800.000
G1 E2.00000 F2400.00000
G1 F1800
G1 X162.685 Y133.276 E2.02136
G1 X163.425 Y133.485 E2.04271
G1 X164.110 Y133.835 E2.06407
G1 X164.711 Y134.315 E2.08542
G1 X165.205 Y134.904 E2.10678
G1 X165.572 Y135.579 E2.12813
G1 X165.799 Y136.313 E2.14947
G1 X165.874 Y137.052 E2.17011
G1 X165.829 Y137.669 E2.18730
G1 X165.643 Y138.399 E2.20822
G1 X165.309 Y139.092 E2.22957
G1 X164.845 Y139.704 E2.25093
G1 X164.269 Y140.213 E2.27228
G1 X163.603 Y140.597 E2.29364
G1 X162.874 Y140.842 E2.31499
G1 X162.111 Y140.938 E2.33635
G1 X161.345 Y140.881 E2.35768
G1 X160.630 Y140.680 E2.37833
G1 X160.072 Y140.413 E2.39551
G1 X159.460 Y139.973 E2.41643
G1 X158.937 Y139.410 E2.43778
G1 X158.537 Y138.754 E2.45914
G1 X158.274 Y138.031 E2.48050
G1 X158.159 Y137.271 E2.50185
G1 X158.197 Y136.503 E2.52321
G1 X158.387 Y135.758 E2.54456
G1 X158.721 Y135.065 E2.56592
G1 X159.185 Y134.452 E2.58727
G1 X159.761 Y133.944 E2.60863
G1 X160.427 Y133.559 E2.62999
G1 X161.156 Y133.315 E2.65134
G1 X161.844 Y133.228 E2.67061
G1 X161.933 Y133.783 F7800.000
G1 F1800
G1 X162.587 Y133.832 E2.68885
G1 X163.219 Y134.009 E2.70709
G1 X163.804 Y134.309 E2.72533
G1 X164.317 Y134.718 E2.74356
G1 X164.739 Y135.221 E2.76180
G1 X165.053 Y135.798 E2.78004
G1 X165.246 Y136.425 E2.79826
G1 X165.311 Y137.060 E2.81600
G1 X165.273 Y137.579 E2.83044
G1 X165.113 Y138.206 E2.84843
G1 X164.828 Y138.798 E2.86666
G1 X164.432 Y139.321 E2.88490
G1 X163.939 Y139.755 E2.90314
G1 X163.371 Y140.084 E2.92137
G1 X162.749 Y140.293 E2.93961
G1 X162.097 Y140.374 E2.95785
G1 X161.443 Y140.325 E2.97607
G1 X160.828 Y140.153 E2.99381
G1 X160.359 Y139.928 E3.00826
G1 X159.833 Y139.550 E3.02624
G1 X159.387 Y139.069 E3.04447
G1 X159.044 Y138.509 E3.06271
G1 X158.820 Y137.892 E3.08095
G1 X158.722 Y137.243 E3.09918
G1 X158.755 Y136.587 E3.11742
G1 X158.917 Y135.951 E3.13566
G1 X159.202 Y135.359 E3.15390
G1 X159.598 Y134.836 E3.17213
G1 X160.090 Y134.402 E3.19037
G1 X160.659 Y134.073 E3.20861
G1 X161.281 Y133.864 E3.22684
G1 X161.858 Y133.792 E3.24300
G1 X161.946 Y134.303 F7800.000
G1 F1800
G1 X162.497 Y134.344 E3.25600
G1 X163.029 Y134.494 E3.26900
G1 X163.521 Y134.746 E3.28200
G1 X163.953 Y135.091 E3.29500
G1 X164.309 Y135.514 E3.30800
G1 X164.573 Y136.000 E3.32100
G1 X164.736 Y136.528 E3.33400
G1 X164.791 Y137.067 E3.34674
G1 X164.759 Y137.495 E3.35683
G1 X164.624 Y138.028 E3.36976
G1 X164.384 Y138.526 E3.38276
G1 X164.050 Y138.967 E3.39576
G1 X163.636 Y139.333 E3.40876
G1 X163.157 Y139.609 E3.42176
G1 X162.633 Y139.785 E3.43476
G1 X162.084 Y139.854 E3.44776
G1 X161.533 Y139.813 E3.46075
G1 X161.011 Y139.666 E3.47350
G1 X160.624 Y139.481 E3.48359
G1 X160.178 Y139.160 E3.49651
G1 X159.802 Y138.755 E3.50951
G1 X159.513 Y138.283 E3.52251
G1 X159.324 Y137.764 E3.53551
G1 X159.242 Y137.217 E3.54851
G1 X159.270 Y136.665 E3.56151
G1 X159.406 Y136.129 E3.57451
G1 X159.646 Y135.631 E3.58752
G1 X159.980 Y135.190 E3.60052
G1 X160.394 Y134.824 E3.61352
G1 X160.873 Y134.548 E3.62652
G1 X161.397 Y134.372 E3.63952
G1 X161.871 Y134.312 E3.65075
G1 X161.946 Y134.303 F7800.000
G1 E1.65075 F2400.00000
G92 E0
G1 X168.646 Y143.646 F7800.000
G1 E2.00000 F2400.00000
G1 F1800
G1 X31.354 Y143.646 E5.81367
G1 X31.354 Y56.354 E8.23845
G1 X168.646 Y56.354 E12.05212
G1 X168.646 Y143.571 E14.47482
G1 X169.207 Y144.207 F7800.000
G1 F1800
G1 X30.793 Y144.207 E18.31965
G1 X30.793 Y55.793 E20.77560
G1 X169.207 Y55.793 E24.62044
G1 X169.207 Y144.132 E27.07430
G1 X169.725 Y144.725 F7800.000
G1 F1800
G1 X30.275 Y144.725 E30.35334
G1 X30.275 Y55.275 E32.45668
G1 X169.725 Y55.275 E35.73572
G1 X169.725 Y144.650 E37.83729
G1 X169.234 Y144.631 F7800.000
G1 E35.83729 F2400.00000
G92 E0
G1 X167.867 Y143.303 F7800.000
G1 E2.00000 F2400.00000
G1 F1800
G1 X168.303 Y142.867 E2.01716
G1 X168.303 Y142.073 E2.03924
G1 X167.073 Y143.303 E2.08762
G1 X166.279 Y143.303 E2.10970
G1 X168.303 Y141.279 E2.18931
G1 X168.303 Y140.485 E2.21138
G1 X165.485 Y143.303 E2.32221
G1 X164.690 Y143.303 E2.34429
G1 X168.303 Y139.690 E2.48633
G1 X168.303 Y138.896 E2.50841
G1 X163.896 Y143.303 E2.68168
G1 X163.102 Y143.303 E2.70376
G1 X168.303 Y138.102 E2.90825
G1 X168.303 Y137.308 E2.93033
G1 X162.308 Y143.303 E3.16604
G1 X161.514 Y143.303 E3.18812
G1 X163.859 Y140.958 E3.28032
G1 X163.218 Y141.174 E3.29914
G1 X162.797 Y141.227 E3.31093
G1 X160.720 Y143.303 E3.39258
G1 X159.926 Y143.303 E3.41466
G1 X161.974 Y141.256 E3.49516
G1 X161.466 Y141.218 E3.50932
G1 X161.272 Y141.163 E3.51492
G1 X159.132 Y143.303 E3.59906
G1 X158.338 Y143.303 E3.62114
G1 X160.652 Y140.990 E3.71211
G1 X160.115 Y140.733 E3.72866
G1 X157.544 Y143.303 E3.82974
G1 X156.750 Y143.303 E3.85182
G1 X159.637 Y140.416 E3.96534
G1 X159.305 Y140.178 E3.97669
G1 X159.198 Y140.061 E3.98110
G1 X155.956 Y143.303 E4.10857
G1 X155.162 Y143.303 E4.13064
G1 X158.815 Y139.649 E4.27430
G1 X158.706 Y139.532 E4.27877
G1 X158.491 Y139.180 E4.29024
G1 X154.368 Y143.303 E4.45237
G1 X153.573 Y143.303 E4.47444
G1 X158.207 Y138.670 E4.65662
G1 X157.995 Y138.088 E4.67384
G1 X152.779 Y143.303 E4.87890
G1 X151.985 Y143.303 E4.90098
G1 X157.866 Y137.423 E5.13218
G1 X157.814 Y137.081 E5.14180
G1 X157.835 Y136.659 E5.15353
G1 X151.191 Y143.303 E5.41476
G1 X150.397 Y143.303 E5.43684
G1 X157.980 Y135.720 E5.73500
G1 X158.075 Y135.347 E5.74570
G1 X158.458 Y134.553 E5.77019
G1 X158.784 Y134.122 E5.78522
G1 X149.603 Y143.303 E6.14620
G1 X148.809 Y143.303 E6.16828
G1 X168.303 Y123.809 E6.93476
G1 X168.303 Y123.015 E6.95683
G1 X148.015 Y143.303 E7.75454
G1 X147.221 Y143.303 E7.77661
G1 X168.303 Y122.221 E8.60553
G1 X168.303 Y121.427 E8.62761
G1 X146.427 Y143.303 E9.48776
G1 X145.633 Y143.303 E9.50983
G1 X168.303 Y120.633 E10.40120
G1 X168.303 Y119.839 E10.42327
G1 X144.839 Y143.303 E11.34586
G1 X144.045 Y143.303 E11.36794
